!!!SOCIAL_FUNCTION:	woman's dance songs
!!!PDT:	1909
!!!OTL: No_183.krn
!!!REG: Great_Lakes
!!!LANG: Non-Tone
!!!LING_GROUP: Algonquin
**kern	**kern
*staff2	*staff1
=1-	=1-
*clefF4	*clefF4
*k[b-]	*k[b-]
*M3/4	*M3/4
8r	4G\
8GG/	.
12GG/	4G\
12r	.
12GG/	.
12GG/	8G\L
12r	.
.	8c\J
12GG/	.
=2||	=2||
*M2/4	*M2/4
2r	8G\L
.	8F\J
.	8F\L
.	8A\J
=3	=3
2r	8D/L
.	8C/J
.	8C/L
.	8D/J
=4	=4
2r	4D\
.	8D\L
.	8F\J
=5	=5
2r	8D/L
.	8C/J
.	8C/L
.	8C/J
=6	=6
2r	4.C/
.	8C/
=7	=7
2r	2C/
==	==
*-	*-
